X: 34
T: The Lark In The Morning
M: 6/8
L: 1/8
R: jig
K:Dmaj
|:"D"AFA AFA|"G"BGB BdB|"D"AFA ABd|"D"fed "G"BdB|
"D"AFA AFA|"G"BGB BdB|"D"def afe|"Bm"fdB BdB:|
|:"D"def a3|"Bm" baf "D"afe|def afe|"G"dBB B2A|
"D"def a3|"Bm"baf "D"afe|"G"g3 "D"f3|"Bm"edB BdB:|
|:"D"d2f fef|fef fef|"(Bm)"d2f fef|"G"edB BAB|
"D"d2f fef|fef def|"G"gfe "D"fed|"Bm"edB BAB:|
|:"D"Add fdd|edd fdd|Add fdd|"G"edB BAB|
"D"Add fdd|"Bm"edB def| "G"g2e "D"f2d|"Bm"edB BAB:|


